svgs/solid/face-monocle.svg

<svg xmlns="http://www.w3.org/2000/svg" viewBox="0 0 512 512"><!--! Font Awesome Pro 6.2.0 by @fontawesome - https://fontawesome.com License - https://fontawesome.com/license (Commercial License) Copyright 2022 Fonticons, Inc. --><path d="M427.2 446.3C381.9 487.2 321.8 512 256 512C114.6 512 0 397.4 0 256S114.6 0 256 0S512 114.6 512 256c0 62.8-22.6 120.3-60.1 164.9c-2.5-8.6-3.9-17.7-3.9-26.9V224c0-61.9-50.1-112-112-112s-112 50.1-112 112s50.1 112 112 112c31.3 0 59.7-12.9 80-33.6v91.5c0 18.4 3.9 36.2 11.2 52.4zM416 224c0 44.2-35.8 80-80 80s-80-35.8-80-80s35.8-80 80-80s80 35.8 80 80zM176.4 192c0-17.7-14.3-32-32-32s-32 14.3-32 32s14.3 32 32 32s32-14.3 32-32zm144 64c17.7 0 32-14.3 32-32s-14.3-32-32-32s-32 14.3-32 32s14.3 32 32 32zM144 352c0 8.8 7.2 16 16 16c14.3 0 37.9 2.9 60.6 11.7c22.8 8.8 42.7 22.7 53.1 43.4c4 7.9 13.6 11.1 21.5 7.2s11.1-13.6 7.2-21.5c-15.3-30.5-43.3-48.6-70.1-59C205.3 339.5 177.7 336 160 336c-8.8 0-16 7.2-16 16zM305.2 89.9c8-6.4 18-9.9 28.2-9.9c8.9 0 17.6 2.6 25.1 7.6l8.6 5.7c7.4 4.9 17.3 2.9 22.2-4.4s2.9-17.3-4.4-22.2L376.3 61c-12.7-8.5-27.6-13-42.8-13c-17.5 0-34.5 6-48.2 16.9L262 83.5c-6.9 5.5-8 15.6-2.5 22.5s15.6 8 22.5 2.5l23.2-18.6z"/></svg>

<svg xmlns="http://www.w3.org/2000/svg" viewBox="0 0 512 512"><!--! Font Awesome Pro 6.1.2 by @fontawesome - https://fontawesome.com License - https://fontawesome.com/license (Commercial License) Copyright 2022 Fonticons, Inc. --><path d="M427.2 446.3C381.9 487.2 321.8 512 256 512C114.6 512 0 397.4 0 256C0 114.6 114.6 0 256 0C397.4 0 512 114.6 512 256C512 318.8 489.4 376.3 451.9 420.9C449.3 412.2 448 403.2 448 393.9V224C448 162.1 397.9 112 336 112C274.1 112 224 162.1 224 224C224 285.9 274.1 336 336 336C367.3 336 395.7 323.1 416 302.4V393.9C416 412.3 419.9 430.1 427.2 446.3V446.3zM144.4 160C126.7 160 112.4 174.3 112.4 192C112.4 209.7 126.7 224 144.4 224C162 224 176.4 209.7 176.4 192C176.4 174.3 162 160 144.4 160zM160 368C174.3 368 197.9 370.9 220.6 379.7C243.4 388.5 263.3 402.5 273.7 423.2C277.6 431.1 287.3 434.3 295.2 430.3C303.1 426.4 306.3 416.7 302.3 408.8C287.1 378.3 258.1 360.3 232.2 349.9C205.3 339.5 177.7 336 159.1 336C151.2 336 143.1 343.2 143.1 352C143.1 360.8 151.2 368 159.1 368L160 368zM305.2 89.91C313.2 83.49 323.2 80 333.5 80C342.4 80 351.1 82.64 358.5 87.59L367.1 93.31C374.5 98.21 384.4 96.23 389.3 88.88C394.2 81.52 392.2 71.59 384.9 66.69L376.3 60.97C363.6 52.51 348.7 48 333.5 48C315.9 48 298.9 53.97 285.2 64.92L262 83.51C255.1 89.03 253.1 99.1 259.5 105.1C265 112.9 275.1 114 281.1 108.5L305.2 89.91zM416 224C416 268.2 380.2 304 336 304C291.8 304 256 268.2 256 224C256 179.8 291.8 144 336 144C380.2 144 416 179.8 416 224zM320.4 256C338 256 352.4 241.7 352.4 224C352.4 206.3 338 192 320.4 192C302.7 192 288.4 206.3 288.4 224C288.4 241.7 302.7 256 320.4 256z"/></svg>
